X: 3
T:Kesh Jig
M:6/8
L:1/8
S:Portland Collection
R:Jig
K:G
D | "G"G2 G GAB| "D"A2 A ABd| "G"edd gdd| edB "D"dBA|!
"G"G2 G GAB| "D"A2 A ABd| "G"edd gdB |1 "D"AGF "G"G2 :|2 "D"AGF "G"G3 ||
